X: 1
T:The House of Clonelphin
B:Joyce, P. W.; "Old Irish Folk Music and Songs"
R:jig
L:1/8
M:6/8
K:G
d|BEE EFA|BAB dcB|AFD D/E/AD|FAA A2 d|
BEE EFA|Bdc dcB|ABc dAF|FEE E2::d|
e3 fdB|Bee f2 e|ded dAF|Ddd d2 f|
efe edB|Bee f2 e|d/c/Bc|dAF|FEE E2:|
